icon-svg/vauxhall.svg

<svg xmlns="http://www.w3.org/2000/svg" viewBox="0 0 24 24"><path fill="#44739e" d="M22 12A10 10 0 1 1 12 2a10 10 0 0 1 10 10M9.5 19.237a8.6 8.6 0 0 1-.62-1.937 5.4 5.4 0 0 1-1.22-.334c-.208-.09-.493-.173-.443-.1s.124.132.165.193-.449-.036-.825-.3c-.324-.226-.429-.29-.8-.155a2.7 2.7 0 0 0-.46.225 8.33 8.33 0 0 0 3.658 2.81l.539-.4Zm3.675-10.92c.046.025.3.151.458.225a.43.43 0 0 0 .317.037 2 2 0 0 0 .3-.22c.079-.064.035-.082-.085-.136a2.3 2.3 0 0 0-.661-.166h-.024c-.06 0-.123.025-.252.123-.062.049-.135.091-.053.137m5.225 2.652c-.023-3.847-3.606-6.481-7.8-5.694-.75.141-1.312.233-.025-.564a6.5 6.5 0 0 1 2.864-.889A8.4 8.4 0 0 0 12.02 3.7a8.29 8.29 0 0 0-8.32 8.258 8.2 8.2 0 0 0 .246 1.995c.258-.09.421-.129.421-.129a7.9 7.9 0 0 1 .112-3.97v.006-.012a7.8 7.8 0 0 1 1.5-2.822h4.411l-1.733 3.065H5.246a7.2 7.2 0 0 0-.053 3.82 1.69 1.69 0 0 0 1.606.717c.2 0 .758-.006 1.781-.025a.23.23 0 0 0 .169-.08.36.36 0 0 0 .075-.2.66.66 0 0 0 0-.325c-.044-.075-.169-.058-.445.133-.195.133-.266.074-.264-.092a4.6 4.6 0 0 1 .389-1.325c.116-.3.293-.715.319-.78.143-.358.3-.522.044-.426-.527.2.366-1.051.886-1.672.241-.288.5-.5.233-.455-.4.067.621-.886 1.048-1.159a2.6 2.6 0 0 0 .542-.439c.382-.4.431-.524.748-.857s.532-.47.634-.47c.08 0 .09.083.025.232-.307.691-.411 1.133 1.07 1.045.809-.05.759.6.76.6 2.179.1.972 1.959.968 1.948-.217-.676-.967-.638-1.475-.563-.447.066-.079.142.054.186.831.278.665.582.592.567-1.142-.225-1.464.392-1.466.988-.005 1.784.849 3.475 2.24 3.979 1.553-.655 2.688-1.919 2.673-4.479ZM6.706 7.713c.043.217.355 1.623.39 1.768.038.163.071.238.211.238h.754c.121 0 .156-.026.223-.143.11-.192 1.1-1.888 1.1-1.888s.106-.166-.127-.166H8.8a.12.12 0 0 0-.105.066q-.462.817-.92 1.635l-.333-1.6a.12.12 0 0 0-.136-.106H6.86c-.092 0-.189.017-.154.192Z"/></svg>

<?xml version="1.0" encoding="UTF-8"?>
<svg width="24px" fill="#44739e" height="24px" viewBox="0 0 24 24" version="1.1" xmlns="http://www.w3.org/2000/svg" xmlns:xlink="http://www.w3.org/1999/xlink">
            <path d="M 22,12 A 10,10 0 1 1 12,2 10,10 0 0 1 22,12 Z M 9.5,19.237 A 8.618,8.618 0 0 1 8.88,17.3 5.435,5.435 0 0 1 7.66,16.966 c -0.208,-0.09 -0.493,-0.173 -0.443,-0.1 0.05,0.073 0.124,0.132 0.165,0.193 0.041,0.061 -0.449,-0.036 -0.825,-0.3 -0.324,-0.226 -0.429,-0.29 -0.8,-0.155 a 2.72,2.72 0 0 0 -0.46,0.225 8.329,8.329 0 0 0 3.658,2.81 l 0.539,-0.4 z m 3.675,-10.92 c 0.046,0.025 0.3,0.151 0.458,0.225 a 0.425,0.425 0 0 0 0.317,0.037 2.081,2.081 0 0 0 0.3,-0.22 C 14.329,8.295 14.285,8.277 14.165,8.223 A 2.293,2.293 0 0 0 13.504,8.057 H 13.48 c -0.06,0 -0.123,0.025 -0.252,0.123 -0.062,0.049 -0.135,0.091 -0.053,0.137 z M 18.4,10.969 C 18.377,7.122 14.794,4.488 10.6,5.275 9.85,5.416 9.288,5.508 10.575,4.711 A 6.475,6.475 0 0 1 13.439,3.822 8.409,8.409 0 0 0 12.02,3.7 8.288,8.288 0 0 0 3.7,11.958 8.2,8.2 0 0 0 3.946,13.953 c 0.258,-0.09 0.421,-0.129 0.421,-0.129 A 7.913,7.913 0 0 1 4.479,9.854 V 9.86 9.848 a 7.815,7.815 0 0 1 1.5,-2.822 H 10.39 L 8.657,10.091 H 5.246 a 7.21,7.21 0 0 0 -0.053,3.82 1.688,1.688 0 0 0 1.606,0.717 c 0.2,0 0.758,-0.006 1.781,-0.025 a 0.225,0.225 0 0 0 0.169,-0.08 0.362,0.362 0 0 0 0.075,-0.2 0.664,0.664 0 0 0 0,-0.325 C 8.78,13.923 8.655,13.94 8.379,14.131 8.184,14.264 8.113,14.205 8.115,14.039 a 4.559,4.559 0 0 1 0.389,-1.325 c 0.116,-0.3 0.293,-0.715 0.319,-0.78 0.143,-0.358 0.3,-0.522 0.044,-0.426 -0.527,0.2 0.366,-1.051 0.886,-1.672 0.241,-0.288 0.5,-0.5 0.233,-0.455 -0.4,0.067 0.621,-0.886 1.048,-1.159 a 2.63,2.63 0 0 0 0.542,-0.439 c 0.382,-0.4 0.431,-0.524 0.748,-0.857 0.317,-0.333 0.532,-0.47 0.634,-0.47 0.08,0 0.09,0.083 0.025,0.232 -0.307,0.691 -0.411,1.133 1.07,1.045 0.809,-0.05 0.759,0.6 0.76,0.6 2.179,0.1 0.972,1.959 0.968,1.948 -0.217,-0.676 -0.967,-0.638 -1.475,-0.563 -0.447,0.066 -0.079,0.142 0.054,0.186 0.831,0.278 0.665,0.582 0.592,0.567 -1.142,-0.225 -1.464,0.392 -1.466,0.988 -0.005,1.784 0.849,3.475 2.24,3.979 1.553,-0.655 2.688,-1.919 2.673,-4.479 z M 6.706,7.713 c 0.043,0.217 0.355,1.623 0.39,1.768 0.038,0.163 0.071,0.238 0.211,0.238 h 0.754 c 0.121,0 0.156,-0.026 0.223,-0.143 0.11,-0.192 1.1,-1.888 1.1,-1.888 0,0 0.106,-0.166 -0.127,-0.166 H 8.8 A 0.12,0.12 0 0 0 8.695,7.588 Q 8.233,8.405 7.775,9.223 L 7.442,7.623 A 0.121,0.121 0 0 0 7.306,7.517 H 6.86 c -0.092,0 -0.189,0.017 -0.154,0.192 z"/>

</svg>
